svgs/sharp-regular/arrow-up-to-line.svg

<svg xmlns="http://www.w3.org/2000/svg" viewBox="0 0 384 512"><!--! Font Awesome Pro 6.6.0 by @fontawesome - https://fontawesome.com License - https://fontawesome.com/license (Commercial License) Copyright 2024 Fonticons, Inc. --><path d="M24 32L0 32 0 80l24 0 336 0 24 0 0-48-24 0L24 32zM209.5 167.6L192 149l-17.5 18.6-128 136L30.1 321l35 32.9 16.4-17.5L168 244.5l0 83.5 0 128 0 24 48 0 0-24 0-128 0-83.5 86.5 91.9L319 353.9l35-32.9-16.4-17.5-128-136z"/></svg>

<svg xmlns="http://www.w3.org/2000/svg" viewBox="0 0 384 512"><!--! Font Awesome Pro 6.4.0 by @fontawesome - https://fontawesome.com License - https://fontawesome.com/license (Commercial License) Copyright 2023 Fonticons, Inc. --><path d="M24 32H0V80H24 360h24V32H360 24zM209.5 167.6L192 149l-17.5 18.6-128 136L30.1 321l35 32.9 16.4-17.5L168 244.5V328 456v24h48V456 328 244.5l86.5 91.9L319 353.9l35-32.9-16.4-17.5-128-136z"/></svg>
